X: 1496
T: Gonzales Schottische
B: australian traditional tunes wiki
M:4/4
L:1/8
R: Schottische
Q: 1/4=100
K:G
V:1 
((3DGB)||"G"d2G>AB2 ((3DGB)|"C"c2E>FE4|"D7"F<AD2F<A ((3DEF)|"G"G2B>AB2-B>c|
|"G"d2G>AB2 ((3DGB)|"C"c2E>FE4|"D7"F<AD2F<A ((3DEF)|"G"G2G2G2B>c|
"G"d>B d>B "C"e>d c>e|"D7"d2c2"C"E4|"D7"A2B2c2d2|"C"e>d c>e "G"d<B G>B|
"G"d>B d>B "C"e>d c>e|"D7"d2c2"C"E4|"D7"A2B2c2B>A|"G"G2B2G2||
% abcbook-tune_id 6342d53af0d97bcb25030196


% abcbook-boost 0
% abcbook-tablature 
% abcbook-transpose 
% abcbook-lastupdated 1665324367873
% abcbook-soundfonts 
% abcbook-repeats 1
% NFF Book 2014

